proprietary/assets/icons/gezondheid-en-zorg/ehbo-ruimte.svg

<svg viewBox="0 0 64 64" xmlns="http://www.w3.org/2000/svg"><path d="m0 0h64v64h-64z" fill="none"/><path d="m32 6a14 14 0 1 0 14 14 14 14 0 0 0 -14-14zm8.4 15.84a1 1 0 0 1 -1 1h-4.6v4.6a1 1 0 0 1 -1 1h-3.6a1 1 0 0 1 -1-1v-4.6h-4.6a1 1 0 0 1 -1-1v-3.59a1 1 0 0 1 1-1h4.6v-4.6a1 1 0 0 1 1-1h3.6a1 1 0 0 1 1 1v4.6h4.6a1 1 0 0 1 1 1z"/><path d="m13.83 50.59h3.87v1.46a1.74 1.74 0 0 1 1.39 1.06c.06.19-.07.25-.07.25a1.8 1.8 0 0 0 -1.32-.59 2 2 0 1 0 .33 4 2.08 2.08 0 0 0 1.67-2.08v-4.1h27.43v1.46a1.76 1.76 0 0 1 1.4 1.06c.06.19-.07.25-.07.25a1.83 1.83 0 0 0 -1.33-.59 2 2 0 1 0 .34 4 2.08 2.08 0 0 0 1.66-2.08v-4.1h2.69a2 2 0 0 0 2-2v-3.27h-42v3.27a2 2 0 0 0 2.01 2zm3.87 4.94a.75.75 0 1 1 .75-.75.75.75 0 0 1 -.75.75zm29.43 0a.75.75 0 1 1 0-1.5.75.75 0 0 1 0 1.5z"/><path d="m56.65 37.64-.34-.94a1 1 0 0 0 -1.31-.61l-14.82 5.23h-29.33a1 1 0 0 0 -1 1v1a1 1 0 0 0 1 1h29.84l15.31-5.4a1 1 0 0 0 .65-1.28z"/></svg>

<svg xmlns="http://www.w3.org/2000/svg" viewBox="0 0 64 64"><defs><style>.cls-1{fill:none;}</style></defs><g id="BOX"><rect class="cls-1" width="64" height="64"/></g><g id="ICOON"><path d="M32,6A14,14,0,1,0,46,20,14,14,0,0,0,32,6Zm8.4,15.84a1,1,0,0,1-1,1H34.8v4.6a1,1,0,0,1-1,1H30.2a1,1,0,0,1-1-1v-4.6H24.6a1,1,0,0,1-1-1V18.25a1,1,0,0,1,1-1h4.6v-4.6a1,1,0,0,1,1-1h3.6a1,1,0,0,1,1,1v4.6h4.6a1,1,0,0,1,1,1Z"/><path d="M13.83,50.59H17.7v1.46a1.74,1.74,0,0,1,1.39,1.06c.06.19-.07.25-.07.25a1.8,1.8,0,0,0-1.32-.59h0a2,2,0,1,0,.33,4,2.08,2.08,0,0,0,1.67-2.08V50.59H47.13v1.46a1.76,1.76,0,0,1,1.4,1.06c.06.19-.07.25-.07.25a1.83,1.83,0,0,0-1.33-.59h0a2,2,0,1,0,.34,4,2.08,2.08,0,0,0,1.66-2.08V50.59h2.69a2,2,0,0,0,2-2V45.32h-42v3.27A2,2,0,0,0,13.83,50.59Zm3.87,4.94a.75.75,0,1,1,.75-.75A.75.75,0,0,1,17.7,55.53Zm29.43,0a.75.75,0,1,1,0-1.5.75.75,0,0,1,0,1.5Z"/><path d="M56.65,37.64l-.34-.94A1,1,0,0,0,55,36.09L40.18,41.32H10.85a1,1,0,0,0-1,1v1a1,1,0,0,0,1,1H40.69L56,38.92A1,1,0,0,0,56.65,37.64Z"/></g></svg>
